packages/icons/svg/Outline/pin.svg

<svg fill="none" height="24" viewBox="0 0 24 24" width="24" xmlns="http://www.w3.org/2000/svg"><path clip-rule="evenodd" d="m12 10.9997c-.827 0-1.5-.673-1.5-1.50004 0-.827.673-1.5 1.5-1.5s1.5.673 1.5 1.5c0 .82704-.673 1.50004-1.5 1.50004zm0-5.0001c-1.93 0-3.5 1.57-3.5 3.5s1.57 3.5 3.5 3.5 3.5-1.57 3.5-3.5-1.57-3.5-3.5-3.5zm0 13.6465c-1.675-1.584-5.99998-6.031-5.99998-9.72404 0-3.265 2.691-5.92199 5.99998-5.92199 3.309 0 6 2.65699 6 5.92199 0 3.69304-4.325 8.14004-6 9.72404zm0-17.6461c-4.411 0-8 3.553-8 7.922 0 5.475 7.049 11.579 7.349 11.836.188.161.419.242.651.242s.463-.081.651-.242c.3-.257 7.349-6.361 7.349-11.836 0-4.369-3.589-7.922-8-7.922z" fill="#6b7280" fill-rule="evenodd"/></svg>

<svg width="24" height="24" viewBox="0 0 24 24" fill="none" xmlns="http://www.w3.org/2000/svg">
<g id="Icon/Outline/pin">
<path id="Mask" fill-rule="evenodd" clip-rule="evenodd" d="M12 10.9995C11.173 10.9995 10.5 10.3265 10.5 9.4995C10.5 8.6725 11.173 7.9995 12 7.9995C12.827 7.9995 13.5 8.6725 13.5 9.4995C13.5 10.3265 12.827 10.9995 12 10.9995ZM12 5.9995C10.07 5.9995 8.5 7.5695 8.5 9.4995C8.5 11.4295 10.07 12.9995 12 12.9995C13.93 12.9995 15.5 11.4295 15.5 9.4995C15.5 7.5695 13.93 5.9995 12 5.9995ZM12 19.646C10.325 18.062 6 13.615 6 9.922C6 6.657 8.691 4 12 4C15.309 4 18 6.657 18 9.922C18 13.615 13.675 18.062 12 19.646ZM12 2C7.589 2 4 5.553 4 9.922C4 15.397 11.049 21.501 11.349 21.758C11.537 21.919 11.768 22 12 22C12.232 22 12.463 21.919 12.651 21.758C12.951 21.501 20 15.397 20 9.922C20 5.553 16.411 2 12 2Z" fill="#000000"/>
</g>
</svg>
